X:1
T:Title
%%score { 1 | 2 }
L:1/8
M:2/2
K:Ab
V:1 treble nm="Grand Piano"
V:2 bass 
V:1
 z4 z2[Q:1/4=100] [CE]2[Q:1/4=120] | [Ec]4 [DB]2 [Ec]2 | [CA]4 [_CG]2 [CF]2 | [CE]4 [_C=D]4 | %4
 [CE]6 [CE]2 | [CE]4 [EA]2 B2 | c4 e2 c2 | B4 A4 | B6 E2 | c4 B2 c2 | A4 [EG]2 [DF]2 | %11
 [CE]4 [_C=D]4 | [CE]6 E2 | F4 [FA]2 [FB]2 | [Ec]4 [Ee]2 [Fd]2 | [Ec]4 [DB]4 |[M:3/4] [CA]6 | %17
[M:1/4] c2 |[M:4/4] e4 c2 B2 | [A,CA]6 [E_GA]2 | [DFA]4 [DEG]2 [A,DF]2 | [A,CE]6 [A,E]2 | %22
 [A,DF]4 [A,FA]2 [=EB]2 | [Ec]4 [Ee]2 [Fd]2 | c4 c2 B2 |[M:3/4] [CA]6 |] %26
V:2
 z4 z2 [A,,A,]2 | [A,,A,]4 [A,,E,]2 [A,,E,]2 | [A,,E,]4 [A,,=D,]2 [A,,F,]2 | [A,,A,]4 [A,,A,]4 | %4
 [A,,A,]6 [A,,A,]2 | [A,,A,]4 [C,A,]2 [E,G,E]2 | [A,E]4 [A,CA]2[K:bass] [A,E]2 | %7
 [G,B,E]4 [F,B,=D]4 | [E,G,E]6 [E,G,]2 | [A,E]4 [E,G,D]2 [E,G,E]2 | [F,C]4 [D,A,]2 [D,A,]2 | %11
 [A,,A,]4 [A,,A,]4 | [A,,A,]6 [C,A,]2 | [D,A,D]4 [D,A,]2 [D,A,]2 | [A,,A,]4 [C,A,]2 [D,A,]2 | %15
 [E,A,]4 [E,G,]4 |[M:3/4] [A,,A,]6 |[M:1/4] [A,E]2 |[M:4/4] [A,CE]4 [E,A,E]2 [E,G,D]2 | A,,6 C,2 | %20
 D,4 D,2 D,2 | A,,6 C,2 | D,4 D,2 [D,A,]2 | [A,,A,]4 [C,A,]2 [D,A,]2 | [E,A,E]4 [E,G,E]2 [E,G,D]2 | %25
[M:3/4] [A,,A,]6 |] %26

